X:1
T:Cinema Paradiso Cello Duet
T:Cinema Paradiso Cello Duet
%%score 1 ( 2 3 )
L:1/8
Q:1/4=65
M:4/4
K:Bb
V:1 bass nm="Violoncello" snm="Vc."
V:2 bass nm="Violoncello" snm="Vc."
V:3 bass 
V:1
!mf! D,4- D,F,,B,,D, | E,D,E,G, F,4- | F,G,E,D, F,4- | F,G,E,D, E,B,A,C | C2 D4 CD | FB, E3 CA,F, | %6
 DF,CF, B,2- B,2 | B,2 C,D, G,F,E,F, | F,2 B,,4 E,D, | D,4 C,4 | B,,8 | z2 z2 z!mp! F,B,A, | %12
 G,2 B,2 z B,CA, | =B,4 G,F,A,A, | A,2 B,4 B,2- | B,ECB, A, z C,A, | B,D,F,A, G,3 B, | %17
 A,4 B,A,G,B, | D4 E,F,G,B, | B,4 A,4 | B,8 || F,,2 B,,6 |[Q:1/4=60] z2 z4[K:tenor] F,2 | %23
 EDCD CB,D,E, | F,4- F,2 z F, | B,A,G,A, G,F,A,C | E6 z E, | G,B,A,C B,G,ED | CGFE F4- | %29
 F2 z4 z[K:treble] F | edcd cBFG | _A6 z ^F | G f2 ^F GfeB | d3 d edcB | cG c2- c4 | cedB G3 B- | %36
 B8 |[M:2/4] z4[Q:1/4=50] |"^Artificial Harmonics 以人工泛音演奏 \n" [B,E]3 [DG] | [EA][B,E] [A,D][G,C] | %40
 [A,D][C,F,] [FB]>[EA] | [EA]2 [DG]2 | z[K:bass] [D,G,] [F,B,][A,D] | [CF][B,E] [A,D][B,E] | %44
 [DG]3 [DG] | [G,C][^F,B,] [G,C][=F,B,] | [E,A,]4- | [E,A,][CF] [Gc]>[FB] | [FB][EA] [DG][CF] | %49
 [B,E]3 [B,,E,] | [CF][B,,E,] [A,D][F,B,] | [G,C]4- | [G,C]2 [A,D][B,E] | [A,D]4- | [A,D]4 | %55
[Q:1/4=68]!p! G,,/4D,/4G,/4A,/4B,/4A,/4B,/4A,/4 G,/4F/4E3/2- | E4 | FE DC | CD, CA, | %59
 B,2[K:tenor] B2 | AG ^FG | FD B,D | ED Ed | cB AG | GE cB | AA, FA | G3 G | AG FD | EB, ED | ^C4 | %70
 C2 B,2 | B,3 A, | B,4 | B,3[K:treble]!<(! D/E/4F/8G/16A/16!<)! |!mf! B3 D | EB AG | Ac FE | %77
 E2 D2 | z D FA | cB AB | d3 d | G^F Gf | e4 | z c gf | fe dc | B3 B | cB AF | G4- | G2 AB | F4- | %90
 F3 E |[M:4/4] E4- E2 B,2- | B,2 C2- C2 C2 | C3 D D4- | D4 D4- | D8 |] %96
V:2
 z8 | z2 z2 z!mp! F,B,A, | G,2 B,2 z B,CA, | =B,4 G,F,A,A, | A,2 FE DC A,2 | B,E,G,B, C4 | %6
 DF,A,C D2 DB | A2 z A G2 z G | F2 z F EDCB, | F,2 E,6 | D,4- D,!mf!F,B,D | EDEG F4- | FGED F4- | %13
 FGED EBAc | c2 d4 CD | FB, E3 CA,F, | DF,CF, B,2 D,2- | D,2 C,D, G,F,E,F, | F,2 B,,4 E,D, | %19
 D,4 C,4 | B,,8 || B,,6 F,2 |!mp! B,8 | G,2 F,2 B,,4 | F,/D,/C,/F,/ D,/C,/F,/D,/ C,/ F,7/2 | %25
 D,2 C,2 E,3 F, | A,/C/B,/A,/ C/B,/A,/C/ B,/ G,7/2 | E,4 G,2 E,2 | A,4 F,/D,/C,/F,/ D,/C,/F,/D,/ | %29
 C,/ F,7/2- F,4 | CB,A,B, A,G,CB, | F,G,F,E, D,C, D,2 | E, G,2 D, E, ^F,3 | F,A, C2 _A,F,E,D, | %34
 E,8 |!p! EGFE C3 D- | D8 |[M:2/4] z4 |[K:treble]"_↑ Concert pitch" x3 x | xx xx | xx x>x | x2 x2 | %42
 x x xx | xx xx | x3 x | xx xx | x4- | xx x>x | xx xx | x3 x | xx xx | x4- | x2 xx | x4- | x4 | %55
 B3 D | EB AG | Ac FE | E2 D2 | z D FA | cB AB | d3 d | G^F Gf | e4 | z c gf | fe dc | B3 B | %67
 cB AF | G4- | G2 AB | F4- | F3 E | E4 | D4 | z!mf! B, CD | z E FG | z A/G/ Ac | G>F- F2 | B,3 C | %79
 DG,- G,C | DC DF | E4 | z C GF | FE DC | C2 D2 | z B, CD | z D FA | BB, CD | D2 ^C2 | DF CB, | %90
 C>D EG |[M:4/4] G4 F4- | F4[K:bass] F,4 | E,4 F,4- | F,4 B,4- | B,8 |] %96
V:3
 x8 | x8 | x8 | x8 | x8 | x8 | x8 | x8 | x8 | x8 | x8 | x8 | x8 | x8 | x8 | x8 | x8 | x8 | x8 | %19
 x8 | x8 || x8 | x8 | x8 | x8 | x8 | x8 | x8 | x8 | x8 | x8 | x8 | x8 | x8 | x8 | x8 | x8 | %37
[M:2/4] x4 |[K:treble] x4 | x4 | x4 | x4 | x4 | x4 | x4 | x4 | x4 | x4 | x4 | x4 | x4 | x4 | x4 | %53
 x4 | z2 DA | x4 | x4 | x4 | x4 | x4 | x4 | x4 | x4 | x4 | x4 | x4 | x4 | x4 | x4 | x4 | x4 | x4 | %72
 x4 | x4 | x4 | x4 | x4 | x4 | x4 | x4 | x4 | x4 | x4 | x4 | x4 | x4 | x4 | x4 | x4 | x4 | x4 | %91
[M:4/4] x8 | x4[K:bass] x4 | x8 | x8 | x8 |] %96

